assets/azuresphere/original.svg

<svg height="18" viewBox="0 0 18 18" width="18" xmlns="http://www.w3.org/2000/svg" xmlns:xlink="http://www.w3.org/1999/xlink"><linearGradient id="a" gradientUnits="userSpaceOnUse" x1="9" x2="9" y1="17.826" y2=".826"><stop offset="0" stop-color="#198ab3"/><stop offset=".442" stop-color="#28b7db"/><stop offset=".775" stop-color="#32d4f5"/></linearGradient><linearGradient id="b" gradientUnits="userSpaceOnUse" x1="5.75" x2="12.303" y1="-3114.591" y2="-3119.908"><stop offset="0" stop-color="#fff" stop-opacity=".9"/><stop offset="1" stop-color="#fff" stop-opacity=".8"/></linearGradient><circle cx="9" cy="9.326" fill="url(#a)" r="8.5"/><path d="m8.81 15.067c-.973-.6-4.151-2.747-4.151-5.255v-3.207l.341-.021a4.04 4.04 0 0 0 2.35-.742 2.48 2.48 0 0 1 1.65-.489 2.5 2.5 0 0 1 1.648.487 4.05 4.05 0 0 0 2.352.744l.34.021v3.207c0 2.508-3.178 4.656-4.152 5.255l-.188.116z" fill="url(#b)"/><path d="m9 14.643c-1.886-1.171-3.881-3.043-3.881-4.831v-2.775a4.45 4.45 0 0 0 2.486-.812 2.03 2.03 0 0 1 1.395-.412 2.07 2.07 0 0 1 1.394.411 4.46 4.46 0 0 0 2.487.813v2.775c0 1.788-1.995 3.66-3.881 4.831" fill="#50e6ff"/><circle cx="15.345" cy="14.083" fill="#fff" r="1.302"/><path d="m15.345 12.781a1.3 1.3 0 1 1 -1.3 1.3 1.3 1.3 0 0 1 1.3-1.3m0-.651a1.954 1.954 0 1 0 1.955 1.953 1.956 1.956 0 0 0 -1.953-1.953z" fill="#b3b3b3"/><circle cx="2.655" cy="14.083" fill="#fff" r="1.302"/><path d="m2.655 12.781a1.3 1.3 0 1 1 -1.3 1.3 1.3 1.3 0 0 1 1.3-1.3m0-.651a1.954 1.954 0 1 0 1.953 1.953 1.955 1.955 0 0 0 -1.953-1.953" fill="#b3b3b3"/><circle cx="9" cy="2.128" fill="#fff" r="1.302"/><path d="m9 .826a1.3 1.3 0 1 1 -1.3 1.3 1.3 1.3 0 0 1 1.3-1.3m0-.652a1.954 1.954 0 1 0 1.953 1.954 1.956 1.956 0 0 0 -1.953-1.954" fill="#b3b3b3"/></svg>

<svg xmlns="http://www.w3.org/2000/svg" width="18" height="18" viewBox="0 0 18 18"><linearGradient id="a" x1="9" x2="9" y1="17.826" y2=".826" gradientUnits="userSpaceOnUse"><stop offset="0" stop-color="#198ab3"/><stop offset=".442" stop-color="#28b7db"/><stop offset=".775" stop-color="#32d4f5"/></linearGradient><linearGradient id="b" x1="5.75" x2="12.303" y1="-3114.591" y2="-3119.908" gradientUnits="userSpaceOnUse"><stop offset="0" stop-color="#fff" stop-opacity=".9"/><stop offset="1" stop-color="#fff" stop-opacity=".8"/></linearGradient><circle cx="9" cy="9.326" r="8.5" fill="url(#a)"/><path fill="url(#b)" d="M8.81 15.067c-.973-.6-4.151-2.747-4.151-5.255V6.605L5 6.584a4.04 4.04 0 0 0 2.35-.742A2.48 2.48 0 0 1 9 5.353a2.5 2.5 0 0 1 1.648.487A4.05 4.05 0 0 0 13 6.584l.34.021v3.207c0 2.508-3.178 4.656-4.152 5.255L9 15.183z"/><path fill="#50e6ff" d="M9 14.643C7.114 13.472 5.119 11.6 5.119 9.812V7.037a4.45 4.45 0 0 0 2.486-.812A2.03 2.03 0 0 1 9 5.813a2.07 2.07 0 0 1 1.394.411 4.46 4.46 0 0 0 2.487.813v2.775c0 1.788-1.995 3.66-3.881 4.831"/><circle cx="15.345" cy="14.083" r="1.302" fill="#fff"/><path fill="#b3b3b3" d="M15.345 12.781a1.3 1.3 0 1 1-1.3 1.3 1.3 1.3 0 0 1 1.3-1.3m0-.651a1.954 1.954 0 1 0 1.955 1.953 1.956 1.956 0 0 0-1.953-1.953z"/><circle cx="2.655" cy="14.083" r="1.302" fill="#fff"/><path fill="#b3b3b3" d="M2.655 12.781a1.3 1.3 0 1 1-1.3 1.3 1.3 1.3 0 0 1 1.3-1.3m0-.651a1.954 1.954 0 1 0 1.953 1.953 1.955 1.955 0 0 0-1.953-1.953"/><circle cx="9" cy="2.128" r="1.302" fill="#fff"/><path fill="#b3b3b3" d="M9 .826a1.3 1.3 0 1 1-1.3 1.3A1.3 1.3 0 0 1 9 .826m0-.652a1.954 1.954 0 1 0 1.953 1.954A1.956 1.956 0 0 0 9 .174"/></svg>
